; G-Code generated by Simplify3D(R) Version 4.1.2
; Jul 12, 2019 at 1:14:15 PM
; Settings Summary
;   processName,Process1
;   applyToModels,D638 Coupon
;   profileName,Pablo v1 (modified)
;   profileVersion,2019-05-07 17:43:26
;   baseProfile,Creality CR-10 (modified)
;   printMaterial,PLA
;   printQuality,Medium
;   printExtruders,
;   extruderName,Primary Extruder
;   extruderToolheadNumber,0
;   extruderDiameter,0.4
;   extruderAutoWidth,0
;   extruderWidth,0.4
;   extrusionMultiplier,1.2
;   extruderUseRetract,1
;   extruderRetractionDistance,5
;   extruderExtraRestartDistance,0
;   extruderRetractionZLift,0
;   extruderRetractionSpeed,1800
;   extruderUseCoasting,0
;   extruderCoastingDistance,0.2
;   extruderUseWipe,0
;   extruderWipeDistance,5
;   primaryExtruder,0
;   layerHeight,0.14
;   topSolidLayers,0
;   bottomSolidLayers,0
;   perimeterOutlines,1
;   printPerimetersInsideOut,1
;   startPointOption,2
;   startPointOriginX,0
;   startPointOriginY,0
;   sequentialIslands,0
;   spiralVaseMode,0
;   firstLayerHeightPercentage,100
;   firstLayerWidthPercentage,100
;   firstLayerUnderspeed,1
;   useRaft,0
;   raftExtruder,0
;   raftTopLayers,3
;   raftBaseLayers,2
;   raftOffset,3
;   raftSeparationDistance,0.14
;   raftTopInfill,100
;   aboveRaftSpeedMultiplier,0.3
;   useSkirt,1
;   skirtExtruder,0
;   skirtLayers,1
;   skirtOutlines,2
;   skirtOffset,4
;   usePrimePillar,0
;   primePillarExtruder,999
;   primePillarWidth,12
;   primePillarLocation,7
;   primePillarSpeedMultiplier,1
;   useOozeShield,0
;   oozeShieldExtruder,999
;   oozeShieldOffset,2
;   oozeShieldOutlines,1
;   oozeShieldSidewallShape,1
;   oozeShieldSidewallAngle,30
;   oozeShieldSpeedMultiplier,1
;   infillExtruder,0
;   internalInfillPattern,Rectilinear
;   externalInfillPattern,Rectilinear
;   infillPercentage,100
;   outlineOverlapPercentage,15
;   infillExtrusionWidthPercentage,100
;   minInfillLength,5
;   infillLayerInterval,1
;   internalInfillAngles,0,90,45,-45
;   overlapInternalInfillAngles,0
;   externalInfillAngles,45,-45
;   generateSupport,0
;   supportExtruder,0
;   supportInfillPercentage,30
;   supportExtraInflation,0
;   supportBaseLayers,0
;   denseSupportExtruder,0
;   denseSupportLayers,0
;   denseSupportInfillPercentage,70
;   supportLayerInterval,1
;   supportHorizontalPartOffset,0.3
;   supportUpperSeparationLayers,1
;   supportLowerSeparationLayers,1
;   supportType,0
;   supportGridSpacing,4
;   maxOverhangAngle,45
;   supportAngles,0
;   temperatureName,Primary Extruder,Heated Bed
;   temperatureNumber,0,0
;   temperatureSetpointCount,1,1
;   temperatureSetpointLayers,1,1
;   temperatureSetpointTemperatures,200,60
;   temperatureStabilizeAtStartup,1,1
;   temperatureHeatedBed,0,1
;   fanLayers,1,2
;   fanSpeeds,0,100
;   blipFanToFullPower,0
;   adjustSpeedForCooling,1
;   minSpeedLayerTime,15
;   minCoolingSpeedSlowdown,20
;   increaseFanForCooling,0
;   minFanLayerTime,45
;   maxCoolingFanSpeed,100
;   increaseFanForBridging,0
;   bridgingFanSpeed,100
;   use5D,1
;   relativeEdistances,0
;   allowEaxisZeroing,1
;   independentExtruderAxes,0
;   includeM10123,0
;   stickySupport,1
;   applyToolheadOffsets,0
;   gcodeXoffset,0
;   gcodeYoffset,0
;   gcodeZoffset,-0.1
;   overrideMachineDefinition,1
;   machineTypeOverride,0
;   strokeXoverride,300
;   strokeYoverride,300
;   strokeZoverride,400
;   originOffsetXoverride,0
;   originOffsetYoverride,0
;   originOffsetZoverride,0
;   homeXdirOverride,-1
;   homeYdirOverride,-1
;   homeZdirOverride,-1
;   flipXoverride,1
;   flipYoverride,-1
;   flipZoverride,1
;   toolheadOffsets,0,0|0,0|0,0|0,0|0,0|0,0
;   overrideFirmwareConfiguration,1
;   firmwareTypeOverride,RepRap (Marlin/Repetier/Sprinter)
;   GPXconfigOverride,r2
;   baudRateOverride,115200
;   overridePrinterModels,1
;   printerModelsOverride
;   startingGcode,G28 ; home all axes,G1 Z5 F3000 ; lift,G1 X5 Y10 F1500 ; move to prime,G1 Z0.2 F3000 ; get ready to prime,G92 E0 ; reset extrusion distance,G1 Y80 E10 F600 ; prime nozzle,G1 Y100 F5000 ; quick wipe
;   layerChangeGcode,
;   retractionGcode,
;   toolChangeGcode,
;   endingGcode,G28 X0 ; home x axis,M106 S0 ; turn off cooling fan,M104 S0 ; turn off extruder,M140 S0 ; turn off bed,M84 ; disable motors
;   exportFileFormat,gcode
;   celebration,0
;   celebrationSong,Random Song
;   postProcessing,
;   defaultSpeed,1000
;   outlineUnderspeed,0.5
;   solidInfillUnderspeed,0.8
;   supportUnderspeed,0.8
;   rapidXYspeed,2400
;   rapidZspeed,1000
;   minBridgingArea,50
;   bridgingExtraInflation,0
;   bridgingExtrusionMultiplier,1
;   bridgingSpeedMultiplier,1
;   useFixedBridgingAngle,0
;   fixedBridgingAngle,0
;   applyBridgingToPerimeters,0
;   filamentDiameters,1.75|1.75|1.75|1.75|1.75|1.75
;   filamentPricesPerKg,46|46|46|46|46|46
;   filamentDensities,1.25|1.25|1.25|1.25|1.25|1.25
;   useMinPrintHeight,0
;   minPrintHeight,0
;   useMaxPrintHeight,0
;   maxPrintHeight,0
;   useDiaphragm,0
;   diaphragmLayerInterval,20
;   robustSlicing,1
;   mergeAllIntoSolid,0
;   onlyRetractWhenCrossingOutline,1
;   retractBetweenLayers,1
;   useRetractionMinTravel,0
;   retractionMinTravel,3
;   retractWhileWiping,0
;   onlyWipeOutlines,1
;   avoidCrossingOutline,0
;   maxMovementDetourFactor,3
;   toolChangeRetractionDistance,12
;   toolChangeExtraRestartDistance,-0.5
;   toolChangeRetractionSpeed,600
;   externalThinWallType,0
;   internalThinWallType,2
;   thinWallAllowedOverlapPercentage,10
;   singleExtrusionMinLength,1
;   singleExtrusionMinPrintingWidthPercentage,50
;   singleExtrusionMaxPrintingWidthPercentage,200
;   singleExtrusionEndpointExtension,0.2
;   horizontalSizeCompensation,0
G90
M82
M106 S0
M140 S60
M190 S60
M104 S200 T0
M109 S200 T0
G28 ; home all axes
G1 Z5 F3000 ; lift
G1 X5 Y10 F1500 ; move to prime
G1 Z0.2 F3000 ; get ready to prime
G92 E0 ; reset extrusion distance
G1 Y80 E10 F600 ; prime nozzle
G1 Y100 F5000 ; quick wipe
; process Process1
; layer 1
;Scan for layer#24
G0 X40 Y35 Z36.5 
M400M118 69
G0 F6400
G0 X40.0
M118 420
G0 X40.1
M118 420
G0 X40.2
M118 420
G0 X40.3
M118 420
G0 X40.4
M118 420
G0 X40.5
M118 420
G0 X40.6
M118 420
G0 X40.7
M118 420
G0 X40.8
M118 420
G0 X40.9
M118 420
G0 X41.0
M118 420
G0 X41.1
M118 420
G0 X41.2
M118 420
G0 X41.3
M118 420
G0 X41.4
M118 420
G0 X41.5
M118 420
G0 X41.6
M118 420
G0 X41.7
M118 420
G0 X41.8
M118 420
G0 X41.9
M118 420
G0 X42.0
M118 420
G0 X42.1
M118 420
G0 X42.2
M118 420
G0 X42.3
M118 420
G0 X42.4
M118 420
G0 X42.5
M118 420
G0 X42.6
M118 420
G0 X42.7
M118 420
G0 X42.8
M118 420
G0 X42.9
M118 420
G0 X43.0
M118 420
G0 X43.1
M118 420
G0 X43.2
M118 420
G0 X43.3
M118 420
G0 X43.4
M118 420
G0 X43.5
M118 420
G0 X43.6
M118 420
G0 X43.7
M118 420
G0 X43.8
M118 420
G0 X43.9
M118 420
G0 X44.0
M118 420
G0 X44.1
M118 420
G0 X44.2
M118 420
G0 X44.3
M118 420
G0 X44.4
M118 420
G0 X44.5
M118 420
G0 X44.6
M118 420
G0 X44.7
M118 420
G0 X44.8
M118 420
G0 X44.9
M118 420
G0 X45.0
M118 420
G0 X45.1
M118 420
G0 X45.2
M118 420
G0 X45.3
M118 420
G0 X45.4
M118 420
G0 X45.5
M118 420
G0 X45.6
M118 420
G0 X45.7
M118 420
G0 X45.8
M118 420
G0 X45.9
M118 420
G0 X46.0
M118 420
G0 X46.1
M118 420
G0 X46.2
M118 420
G0 X46.3
M118 420
G0 X46.4
M118 420
G0 X46.5
M118 420
G0 X46.6
M118 420
G0 X46.7
M118 420
G0 X46.8
M118 420
G0 X46.9
M118 420
G0 X47.0
M118 420
G0 X47.1
M118 420
G0 X47.2
M118 420
G0 X47.3
M118 420
G0 X47.4
M118 420
G0 X47.5
M118 420
G0 X47.6
M118 420
G0 X47.7
M118 420
G0 X47.8
M118 420
G0 X47.9
M118 420
G0 X48.0
M118 420
G0 X48.1
M118 420
G0 X48.2
M118 420
G0 X48.3
M118 420
G0 X48.4
M118 420
G0 X48.5
M118 420
G0 X48.6
M118 420
G0 X48.7
M118 420
G0 X48.8
M118 420
G0 X48.9
M118 420
G0 X49.0
M118 420
G0 X49.1
M118 420
G0 X49.2
M118 420
G0 X49.3
M118 420
G0 X49.4
M118 420
G0 X49.5
M118 420
G0 X49.6
M118 420
G0 X49.7
M118 420
G0 X49.8
M118 420
G0 X49.9
M118 420
G0 X50.0
M118 420
G0 X50.1
M118 420
G0 X50.2
M118 420
G0 X50.3
M118 420
G0 X50.4
M118 420
G0 X50.5
M118 420
G0 X50.6
M118 420
G0 X50.7
M118 420
G0 X50.8
M118 420
G0 X50.9
M118 420
G0 X51.0
M118 420
G0 X51.1
M118 420
G0 X51.2
M118 420
G0 X51.3
M118 420
G0 X51.4
M118 420
G0 X51.5
M118 420
G0 X51.6
M118 420
G0 X51.7
M118 420
G0 X51.8
M118 420
G0 X51.9
M118 420
G0 X52.0
M118 420
G0 X52.1
M118 420
G0 X52.2
M118 420
G0 X52.3
M118 420
G0 X52.4
M118 420
G0 X52.5
M118 420
G0 X52.6
M118 420
G0 X52.7
M118 420
G0 X52.8
M118 420
G0 X52.9
M118 420
G0 X53.0
M118 420
G0 X53.1
M118 420
G0 X53.2
M118 420
G0 X53.3
M118 420
G0 X53.4
M118 420
G0 X53.5
M118 420
G0 X53.6
M118 420
G0 X53.7
M118 420
G0 X53.8
M118 420
G0 X53.9
M118 420
G0 X54.0
M118 420
G0 X54.1
M118 420
G0 X54.2
M118 420
G0 X54.3
M118 420
G0 X54.4
M118 420
G0 X54.5
M118 420
G0 X54.6
M118 420
G0 X54.7
M118 420
G0 X54.8
M118 420
G0 X54.9
M118 420
G0 X55.0
M118 420
G0 X55.1
M118 420
G0 X55.2
M118 420
G0 X55.3
M118 420
G0 X55.4
M118 420
G0 X55.5
M118 420
G0 X55.6
M118 420
G0 X55.7
M118 420
G0 X55.8
M118 420
G0 X55.9
M118 420
G0 X56.0
M118 420
G0 X56.1
M118 420
G0 X56.2
M118 420
G0 X56.3
M118 420
G0 X56.400000000000006
M118 420
G0 X56.5
M118 420
G0 X56.6
M118 420
G0 X56.7
M118 420
G0 X56.8
M118 420
G0 X56.900000000000006
M118 420
G0 X57.0
M118 420
G0 X57.1
M118 420
G0 X57.2
M118 420
G0 X57.3
M118 420
G0 X57.400000000000006
M118 420
G0 X57.5
M118 420
G0 X57.6
M118 420
G0 X57.7
M118 420
G0 X57.8
M118 420
G0 X57.900000000000006
M118 420
G0 X58.0
M118 420
G0 X58.1
M118 420
G0 X58.2
M118 420
G0 X58.3
M118 420
G0 X58.400000000000006
M118 420
G0 X58.5
M118 420
G0 X58.6
M118 420
G0 X58.7
M118 420
G0 X58.8
M118 420
G0 X58.900000000000006
M118 420
G0 X59.0
M118 420
G0 X59.1
M118 420
G0 X59.2
M118 420
G0 X59.3
M118 420
G0 X59.400000000000006
M118 420
G0 X59.5
M118 420
G0 X59.6
M118 420
G0 X59.7
M118 420
G0 X59.8
M118 420
G0 X59.900000000000006
M118 420
G0 X60.0
M118 420
G0 X60.1
M118 420
G0 X60.2
M118 420
G0 X60.3
M118 420
G0 X60.400000000000006
M118 420
G0 X60.5
M118 420
G0 X60.6
M118 420
G0 X60.7
M118 420
G0 X60.8
M118 420
G0 X60.900000000000006
M118 420
G0 X61.0
M118 420
G0 X61.1
M118 420
G0 X61.2
M118 420
G0 X61.3
M118 420
G0 X61.400000000000006
M118 420
G0 X61.5
M118 420
G0 X61.6
M118 420
G0 X61.7
M118 420
G0 X61.8
M118 420
G0 X61.900000000000006
M118 420
G0 X62.0
M118 420
G0 X62.1
M118 420
G0 X62.2
M118 420
G0 X62.3
M118 420
G0 X62.400000000000006
M118 420
G0 X62.5
M118 420
G0 X62.6
M118 420
G0 X62.7
M118 420
G0 X62.8
M118 420
G0 X62.900000000000006
M118 420
G0 X63.0
M118 420
G0 X63.1
M118 420
G0 X63.2
M118 420
G0 X63.3
M118 420
G0 X63.400000000000006
M118 420
G0 X63.5
M118 420
G0 X63.6
M118 420
G0 X63.7
M118 420
G0 X63.8
M118 420
G0 X63.900000000000006
M118 420
G0 X64.0
M118 420
G0 X64.1
M118 420
G0 X64.2
M118 420
G0 X64.3
M118 420
G0 X64.4
M118 420
G0 X64.5
M118 420
G0 X64.6
M118 420
G0 X64.7
M118 420
G0 X64.8
M118 420
G0 X64.9
M118 420
G0 X65.0
M118 420
G0 X65.1
M118 420
G0 X65.2
M118 420
G0 X65.3
M118 420
G0 X65.4
M118 420
G0 X65.5
M118 420
G0 X65.6
M118 420
G0 X65.7
M118 420
G0 X65.8
M118 420
G0 X65.9
M118 420
G0 X66.0
M118 420
G0 X66.1
M118 420
G0 X66.2
M118 420
G0 X66.3
M118 420
G0 X66.4
M118 420
G0 X66.5
M118 420
G0 X66.6
M118 420
G0 X66.7
M118 420
G0 X66.8
M118 420
G0 X66.9
M118 420
G0 X67.0
M118 420
G0 X67.1
M118 420
G0 X67.2
M118 420
G0 X67.3
M118 420
G0 X67.4
M118 420
G0 X67.5
M118 420
G0 X67.6
M118 420
G0 X67.7
M118 420
G0 X67.8
M118 420
G0 X67.9
M118 420
G0 X68.0
M118 420
G0 X68.1
M118 420
G0 X68.2
M118 420
G0 X68.3
M118 420
G0 X68.4
M118 420
G0 X68.5
M118 420
G0 X68.6
M118 420
G0 X68.7
M118 420
G0 X68.8
M118 420
G0 X68.9
M118 420
G0 X69.0
M118 420
G0 X69.1
M118 420
G0 X69.2
M118 420
G0 X69.3
M118 420
G0 X69.4
M118 420
G0 X69.5
M118 420
G0 X69.6
M118 420
G0 X69.7
M118 420
G0 X69.8
M118 420
G0 X69.9
M118 420
G0 X70.0
M118 420
G0 X70.1
M118 420
G0 X70.2
M118 420
G0 X70.3
M118 420
G0 X70.4
M118 420
G0 X70.5
M118 420
G0 X70.6
M118 420
G0 X70.7
M118 420
G0 X70.8
M118 420
G0 X70.9
M118 420
G0 X71.0
M118 420
G0 X71.1
M118 420
G0 X71.2
M118 420
G0 X71.3
M118 420
G0 X71.4
M118 420
G0 X71.5
M118 420
G0 X71.6
M118 420
G0 X71.7
M118 420
G0 X71.8
M118 420
G0 X71.9
M118 420
G0 X72.0
M118 420
G0 X72.1
M118 420
G0 X72.2
M118 420
G0 X72.30000000000001
M118 420
G0 X72.4
M118 420
G0 X72.5
M118 420
G0 X72.6
M118 420
G0 X72.7
M118 420
G0 X72.80000000000001
M118 420
G0 X72.9
M118 420
G0 X73.0
M118 420
G0 X73.1
M118 420
G0 X73.2
M118 420
G0 X73.30000000000001
M118 420
G0 X73.4
M118 420
G0 X73.5
M118 420
G0 X73.6
M118 420
G0 X73.7
M118 420
G0 X73.80000000000001
M118 420
G0 X73.9
M118 420
G0 X74.0
M118 420
G0 X74.1
M118 420
G0 X74.2
M118 420
G0 X74.30000000000001
M118 420
G0 X74.4
M118 420
G0 X74.5
M118 420
G0 X74.6
M118 420
G0 X74.7
M118 420
G0 X74.80000000000001
M118 420
G0 X74.9
M118 420
G0 X75.0
M118 420
G0 X75.1
M118 420
G0 X75.2
M118 420
G0 X75.30000000000001
M118 420
G0 X75.4
M118 420
G0 X75.5
M118 420
G0 X75.6
M118 420
G0 X75.7
M118 420
G0 X75.80000000000001
M118 420
G0 X75.9
M118 420
G0 X76.0
M118 420
G0 X76.1
M118 420
G0 X76.2
M118 420
G0 X76.30000000000001
M118 420
G0 X76.4
M118 420
G0 X76.5
M118 420
G0 X76.6
M118 420
G0 X76.7
M118 420
G0 X76.80000000000001
M118 420
G0 X76.9
M118 420
G0 X77.0
M118 420
G0 X77.1
M118 420
G0 X77.2
M118 420
G0 X77.30000000000001
M118 420
G0 X77.4
M118 420
G0 X77.5
M118 420
G0 X77.6
M118 420
G0 X77.7
M118 420
G0 X77.80000000000001
M118 420
G0 X77.9
M118 420
G0 X78.0
M118 420
G0 X78.1
M118 420
G0 X78.2
M118 420
G0 X78.30000000000001
M118 420
G0 X78.4
M118 420
G0 X78.5
M118 420
G0 X78.6
M118 420
G0 X78.7
M118 420
G0 X78.80000000000001
M118 420
G0 X78.9
M118 420
G0 X79.0
M118 420
G0 X79.1
M118 420
G0 X79.2
M118 420
G0 X79.30000000000001
M118 420
G0 X79.4
M118 420
G0 X79.5
M118 420
G0 X79.6
M118 420
G0 X79.7
M118 420
G0 X79.80000000000001
M118 420
G0 X79.9
M118 420
G0 X80.0
M118 420
G0 X80.1
M118 420
G0 X80.2
M118 420
G0 X80.30000000000001
M118 420
G0 X80.4
M118 420
G0 X80.5
M118 420
G0 X80.6
M118 420
G0 X80.7
M118 420
G0 X80.80000000000001
M118 420
G0 X80.9
M118 420
G0 X81.0
M118 420
G0 X81.1
M118 420
G0 X81.2
M118 420
G0 X81.30000000000001
M118 420
G0 X81.4
M118 420
G0 X81.5
M118 420
G0 X81.6
M118 420
G0 X81.7
M118 420
G0 X81.80000000000001
M118 420
G0 X81.9
M118 420
G0 X82.0
M118 420
G0 X82.1
M118 420
G0 X82.2
M118 420
G0 X82.30000000000001
M118 420
G0 X82.4
M118 420
G0 X82.5
M118 420
G0 X82.6
M118 420
G0 X82.7
M118 420
G0 X82.80000000000001
M118 420
G0 X82.9
M118 420
G0 X83.0
M118 420
G0 X83.1
M118 420
G0 X83.2
M118 420
G0 X83.30000000000001
M118 420
G0 X83.4
M118 420
G0 X83.5
M118 420
G0 X83.6
M118 420
G0 X83.7
M118 420
G0 X83.80000000000001
M118 420
G0 X83.9
M118 420
G0 X84.0
M118 420
G0 X84.1
M118 420
G0 X84.2
M118 420
G0 X84.30000000000001
M118 420
G0 X84.4
M118 420
G0 X84.5
M118 420
G0 X84.6
M118 420
G0 X84.7
M118 420
G0 X84.80000000000001
M118 420
G0 X84.9
M118 420
G0 X85.0
M118 420
G0 X85.1
M118 420
G0 X85.2
M118 420
G0 X85.30000000000001
M118 420
G0 X85.4
M118 420
G0 X85.5
M118 420
G0 X85.6
M118 420
G0 X85.7
M118 420
G0 X85.80000000000001
M118 420
G0 X85.9
M118 420
G0 X86.0
M118 420
G0 X86.1
M118 420
G0 X86.2
M118 420
G0 X86.30000000000001
M118 420
G0 X86.4
M118 420
G0 X86.5
M118 420
G0 X86.6
M118 420
G0 X86.7
M118 420
G0 X86.80000000000001
M118 420
G0 X86.9
M118 420
G0 X87.0
M118 420
G0 X87.1
M118 420
G0 X87.2
M118 420
G0 X87.30000000000001
M118 420
G0 X87.4
M118 420
G0 X87.5
M118 420
G0 X87.6
M118 420
G0 X87.7
M118 420
G0 X87.80000000000001
M118 420
G0 X87.9
M118 420
G0 X88.0
M118 420
G0 X88.1
M118 420
G0 X88.2
M118 420
G0 X88.30000000000001
M118 420
G0 X88.4
M118 420
G0 X88.5
M118 420
G0 X88.6
M118 420
G0 X88.7
M118 420
G0 X88.80000000000001
M118 420
G0 X88.9
M118 420
G0 X89.0
M118 420
G0 X89.1
M118 420
G0 X89.2
M118 420
G0 X89.30000000000001
M118 420
G0 X89.4
M118 420
G0 X89.5
M118 420
G0 X89.6
M118 420
G0 X89.7
M118 420
G0 X89.80000000000001
M118 420
G0 X89.9
M118 420
G0 X90.0
M118 420
G0 X90.1
M118 420
G0 X90.2
M118 420
G0 X90.30000000000001
M118 420
G0 X90.4
M118 420
G0 X90.5
M118 420
G0 X90.6
M118 420
G0 X90.7
M118 420
G0 X90.80000000000001
M118 420
G0 X90.9
M118 420
G0 X91.0
M118 420
G0 X91.1
M118 420
G0 X91.2
M118 420
G0 X91.30000000000001
M118 420
G0 X91.4
M118 420
