; G-Code generated by Simplify3D(R) Version 4.1.2
; Jul 23, 2019 at 2:56:03 PM
; Settings Summary
;   processName,Process1
;   applyToModels,D638 Coupon
;   profileName,Pablo Printcasso (modified)
;   profileVersion,2019-07-13 16:04:00
;   baseProfile,Creality CR-10 (modified)
;   printMaterial,PLA
;   printQuality,Medium
;   printExtruders,
;   extruderName,Primary Extruder
;   extruderToolheadNumber,0
;   extruderDiameter,0.4
;   extruderAutoWidth,0
;   extruderWidth,0.4
;   extrusionMultiplier,1.25
;   extruderUseRetract,1
;   extruderRetractionDistance,5
;   extruderExtraRestartDistance,0
;   extruderRetractionZLift,0
;   extruderRetractionSpeed,1800
;   extruderUseCoasting,0
;   extruderCoastingDistance,0.2
;   extruderUseWipe,0
;   extruderWipeDistance,5
;   primaryExtruder,0
;   layerHeight,0.14
;   topSolidLayers,0
;   bottomSolidLayers,0
;   perimeterOutlines,1
;   printPerimetersInsideOut,1
;   startPointOption,2
;   startPointOriginX,0
;   startPointOriginY,0
;   sequentialIslands,0
;   spiralVaseMode,0
;   firstLayerHeightPercentage,100
;   firstLayerWidthPercentage,100
;   firstLayerUnderspeed,1
;   useRaft,0
;   raftExtruder,0
;   raftTopLayers,3
;   raftBaseLayers,2
;   raftOffset,3
;   raftSeparationDistance,0.14
;   raftTopInfill,100
;   aboveRaftSpeedMultiplier,0.3
;   useSkirt,1
;   skirtExtruder,0
;   skirtLayers,1
;   skirtOutlines,2
;   skirtOffset,4
;   usePrimePillar,0
;   primePillarExtruder,999
;   primePillarWidth,12
;   primePillarLocation,7
;   primePillarSpeedMultiplier,1
;   useOozeShield,0
;   oozeShieldExtruder,999
;   oozeShieldOffset,2
;   oozeShieldOutlines,1
;   oozeShieldSidewallShape,1
;   oozeShieldSidewallAngle,30
;   oozeShieldSpeedMultiplier,1
;   infillExtruder,0
;   internalInfillPattern,Rectilinear
;   externalInfillPattern,Rectilinear
;   infillPercentage,100
;   outlineOverlapPercentage,50
;   infillExtrusionWidthPercentage,100
;   minInfillLength,5
;   infillLayerInterval,1
;   internalInfillAngles,90
;   overlapInternalInfillAngles,0
;   externalInfillAngles,45,-45
;   generateSupport,0
;   supportExtruder,0
;   supportInfillPercentage,30
;   supportExtraInflation,0
;   supportBaseLayers,0
;   denseSupportExtruder,0
;   denseSupportLayers,0
;   denseSupportInfillPercentage,70
;   supportLayerInterval,1
;   supportHorizontalPartOffset,0.3
;   supportUpperSeparationLayers,1
;   supportLowerSeparationLayers,1
;   supportType,0
;   supportGridSpacing,4
;   maxOverhangAngle,45
;   supportAngles,0
;   temperatureName,Primary Extruder,Heated Bed
;   temperatureNumber,0,0
;   temperatureSetpointCount,1,1
;   temperatureSetpointLayers,1,1
;   temperatureSetpointTemperatures,200,60
;   temperatureStabilizeAtStartup,1,1
;   temperatureHeatedBed,0,1
;   fanLayers,1,2
;   fanSpeeds,0,100
;   blipFanToFullPower,0
;   adjustSpeedForCooling,1
;   minSpeedLayerTime,15
;   minCoolingSpeedSlowdown,20
;   increaseFanForCooling,0
;   minFanLayerTime,45
;   maxCoolingFanSpeed,100
;   increaseFanForBridging,0
;   bridgingFanSpeed,100
;   use5D,1
;   relativeEdistances,0
;   allowEaxisZeroing,1
;   independentExtruderAxes,0
;   includeM10123,0
;   stickySupport,1
;   applyToolheadOffsets,0
;   gcodeXoffset,0
;   gcodeYoffset,0
;   gcodeZoffset,-0.1
;   overrideMachineDefinition,1
;   machineTypeOverride,0
;   strokeXoverride,300
;   strokeYoverride,300
;   strokeZoverride,400
;   originOffsetXoverride,0
;   originOffsetYoverride,0
;   originOffsetZoverride,0
;   homeXdirOverride,-1
;   homeYdirOverride,-1
;   homeZdirOverride,-1
;   flipXoverride,1
;   flipYoverride,-1
;   flipZoverride,1
;   toolheadOffsets,0,0|0,0|0,0|0,0|0,0|0,0
;   overrideFirmwareConfiguration,1
;   firmwareTypeOverride,RepRap (Marlin/Repetier/Sprinter)
;   GPXconfigOverride,r2
;   baudRateOverride,115200
;   overridePrinterModels,1
;   printerModelsOverride
;   startingGcode,G28 ; home all axes,G1 Z5 F3000 ; lift,G1 X5 Y10 F1500 ; move to prime,G1 Z0.2 F3000 ; get ready to prime,G92 E0 ; reset extrusion distance,G1 Y80 E10 F600 ; prime nozzle,G1 Y100 F5000 ; quick wipe
;   layerChangeGcode,
;   retractionGcode,
;   toolChangeGcode,
;   endingGcode,G28 X0 ; home x axis,M106 S0 ; turn off cooling fan,M104 S0 ; turn off extruder,M140 S0 ; turn off bed,M84 ; disable motors
;   exportFileFormat,gcode
;   celebration,0
;   celebrationSong,Random Song
;   postProcessing,
;   defaultSpeed,3600
;   outlineUnderspeed,0.5
;   solidInfillUnderspeed,0.8
;   supportUnderspeed,0.8
;   rapidXYspeed,3600
;   rapidZspeed,3600
;   minBridgingArea,50
;   bridgingExtraInflation,0
;   bridgingExtrusionMultiplier,1
;   bridgingSpeedMultiplier,1
;   useFixedBridgingAngle,0
;   fixedBridgingAngle,0
;   applyBridgingToPerimeters,0
;   filamentDiameters,1.75|1.75|1.75|1.75|1.75|1.75
;   filamentPricesPerKg,46|46|46|46|46|46
;   filamentDensities,1.25|1.25|1.25|1.25|1.25|1.25
;   useMinPrintHeight,0
;   minPrintHeight,0
;   useMaxPrintHeight,0
;   maxPrintHeight,0
;   useDiaphragm,0
;   diaphragmLayerInterval,20
;   robustSlicing,1
;   mergeAllIntoSolid,0
;   onlyRetractWhenCrossingOutline,1
;   retractBetweenLayers,1
;   useRetractionMinTravel,0
;   retractionMinTravel,3
;   retractWhileWiping,0
;   onlyWipeOutlines,1
;   avoidCrossingOutline,0
;   maxMovementDetourFactor,3
;   toolChangeRetractionDistance,12
;   toolChangeExtraRestartDistance,-0.5
;   toolChangeRetractionSpeed,600
;   externalThinWallType,0
;   internalThinWallType,2
;   thinWallAllowedOverlapPercentage,10
;   singleExtrusionMinLength,1
;   singleExtrusionMinPrintingWidthPercentage,50
;   singleExtrusionMaxPrintingWidthPercentage,200
;   singleExtrusionEndpointExtension,0.2
;   horizontalSizeCompensation,0
G90
M82
M106 S0
M140 S60
M190 S60
M104 S200 T0
M109 S200 T0
G28 ; home all axes
G1 Z5 F3000 ; lift
G1 X5 Y10 F1500 ; move to prime
G1 Z0.2 F3000 ; get ready to prime
G92 E0 ; reset extrusion distance
G1 Y80 E10 F600 ; prime nozzle
G1 Y100 F5000 ; quick wipe
; process Process1
T0
G92 E0.0000
G1 E-5.0000 F1800
; feature skirt
; tool H0.140 W0.400
G1 Z0.040 F3600
G1 X19.095 Y213.080 F3600
G1 E0.0000 F1800
G92 E0.0000
G1 X54.142 Y213.080 E1.0200 F3600
G1 X54.705 Y213.150 E1.0365
G1 X60.017 Y214.487 E1.1959
G1 X64.970 Y215.369 E1.3423
G1 X69.972 Y215.900 E1.4887
G1 X75.081 Y216.080 E1.6375
G1 X131.919 Y216.080 E3.2916
G1 X137.028 Y215.900 E3.4404
G1 X142.030 Y215.369 E3.5868
G1 X146.983 Y214.487 E3.7332
G1 X152.295 Y213.150 E3.8926
G1 X152.858 Y213.080 E3.9091
G1 X187.905 Y213.080 E4.9291
G1 X190.600 Y215.775 E5.0400
G1 X190.600 Y238.585 E5.7038
G1 X187.905 Y241.280 E5.8147
G1 X152.858 Y241.280 E6.8347
G1 X152.295 Y241.210 E6.8512
G1 X146.983 Y239.873 E7.0106
G1 X142.030 Y238.991 E7.1570
G1 X137.028 Y238.460 E7.3035
G1 X131.919 Y238.280 E7.4522
G1 X75.081 Y238.280 E9.1064
G1 X69.972 Y238.460 E9.2551
G1 X64.970 Y238.991 E9.4015
G1 X60.017 Y239.873 E9.5480
G1 X54.705 Y241.210 E9.7073
G1 X54.142 Y241.280 E9.7239
G1 X19.095 Y241.280 E10.7438
G1 X16.400 Y238.585 E10.8547
G1 X16.400 Y215.775 E11.5186
G1 X19.095 Y213.080 E11.6295
G92 E0.0000
G1 E-5.0000 F1800
G1 X19.260 Y213.480 F3600
G1 E0.0000 F1800
G92 E0.0000
G1 X54.117 Y213.480 E1.0144 F3600
G1 X54.632 Y213.544 E1.0295
G1 X59.933 Y214.879 E1.1886
G1 X64.913 Y215.765 E1.3358
G1 X69.944 Y216.299 E1.4831
G1 X75.074 Y216.480 E1.6324
G1 X131.926 Y216.480 E3.2870
G1 X137.056 Y216.299 E3.4364
G1 X142.087 Y215.765 E3.5836
G1 X147.067 Y214.879 E3.7308
G1 X152.368 Y213.544 E3.8899
G1 X152.883 Y213.480 E3.9050
G1 X187.740 Y213.480 E4.9194
G1 X190.200 Y215.940 E5.0207
G1 X190.200 Y238.420 E5.6749
G1 X187.740 Y240.880 E5.7762
G1 X152.883 Y240.880 E6.7906
G1 X152.368 Y240.816 E6.8057
G1 X147.067 Y239.481 E6.9648
G1 X142.087 Y238.595 E7.1120
G1 X137.056 Y238.061 E7.2592
G1 X131.926 Y237.880 E7.4086
G1 X75.074 Y237.880 E9.0632
G1 X69.944 Y238.061 E9.2125
G1 X64.913 Y238.595 E9.3598
G1 X59.933 Y239.481 E9.5070
G1 X54.632 Y240.816 E9.6661
G1 X54.117 Y240.880 E9.6812
G1 X19.260 Y240.880 E10.6956
G1 X16.800 Y238.420 E10.7969
G1 X16.800 Y215.940 E11.4511
G1 X19.260 Y213.480 E11.5523
G92 E0.0000
G1 E-5.0000 F1800
; feature outer perimeter
G1 X21.200 Y217.880 F3600
G1 E0.0000 F1800
G92 E0.0000
G1 X53.833 Y217.880 E0.9497 F1800
G1 X59.009 Y219.183 E1.1050
G1 X64.295 Y220.124 E1.2613
G1 X69.634 Y220.691 E1.4176
G1 X74.996 Y220.880 E1.5737
G1 X132.004 Y220.880 E3.2328
G1 X137.366 Y220.691 E3.3889
G1 X142.705 Y220.124 E3.5452
G1 X147.991 Y219.183 E3.7014
G1 X153.167 Y217.880 E3.8568
G1 X185.800 Y217.880 E4.8065
G1 X185.800 Y236.480 E5.3478
G1 X153.167 Y236.480 E6.2975
G1 X147.991 Y235.177 E6.4528
G1 X142.705 Y234.236 E6.6091
G1 X137.366 Y233.669 E6.7653
G1 X132.004 Y233.480 E6.9215
G1 X74.996 Y233.480 E8.5805
G1 X69.634 Y233.669 E8.7367
G1 X64.295 Y234.236 E8.8930
G1 X59.009 Y235.177 E9.0492
G1 X53.833 Y236.480 E9.2046
G1 X21.200 Y236.480 E10.1543
G1 X21.200 Y217.880 E10.6956
; feature infill
G1 X21.500 Y236.280 F3600
G92 E0.0000
G1 X21.500 Y218.080 E0.5297 F3600
G1 X21.900 Y218.080 E0.5413
G1 X21.900 Y236.280 E1.0710
G1 X22.300 Y236.280 E1.0826
G1 X22.300 Y218.080 E1.6123
G1 X22.700 Y218.080 E1.6239
G1 X22.700 Y236.280 E2.1536
G1 X23.100 Y236.280 E2.1652
G1 X23.100 Y218.080 E2.6949
G1 X23.500 Y218.080 E2.7065
G1 X23.500 Y236.280 E3.2362
G1 X23.900 Y236.280 E3.2479
G1 X23.900 Y218.080 E3.7775
G1 X24.300 Y218.080 E3.7892
G1 X24.300 Y236.280 E4.3188
G1 X24.700 Y236.280 E4.3305
G1 X24.700 Y218.080 E4.8601
G1 X25.100 Y218.080 E4.8718
G1 X25.100 Y236.280 E5.4014
G1 X25.500 Y236.280 E5.4131
G1 X25.500 Y218.080 E5.9428
G1 X25.900 Y218.080 E5.9544
G1 X25.900 Y236.280 E6.4841
G1 X26.300 Y236.280 E6.4957
G1 X26.300 Y218.080 E7.0254
G1 X26.700 Y218.080 E7.0370
G1 X26.700 Y236.280 E7.5667
G1 X27.100 Y236.280 E7.5783
G1 X27.100 Y218.080 E8.1080
G1 X27.500 Y218.080 E8.1196
G1 X27.500 Y236.280 E8.6493
G1 X27.900 Y236.280 E8.6609
G1 X27.900 Y218.080 E9.1906
G1 X28.300 Y218.080 E9.2022
G1 X28.300 Y236.280 E9.7319
G1 X28.700 Y236.280 E9.7436
G1 X28.700 Y218.080 E10.2732
G1 X29.100 Y218.080 E10.2849
G1 X29.100 Y236.280 E10.8145
G1 X29.500 Y236.280 E10.8262
G1 X29.500 Y218.080 E11.3558
G1 X29.900 Y218.080 E11.3675
G1 X29.900 Y236.280 E11.8972
G1 X30.300 Y236.280 E11.9088
G1 X30.300 Y218.080 E12.4385
G1 X30.700 Y218.080 E12.4501
G1 X30.700 Y236.280 E12.9798
G1 X31.100 Y236.280 E12.9914
G1 X31.100 Y218.080 E13.5211
G1 X31.500 Y218.080 E13.5327
G1 X31.500 Y236.280 E14.0624
G1 X31.900 Y236.280 E14.0740
G1 X31.900 Y218.080 E14.6037
G1 X32.300 Y218.080 E14.6153
G1 X32.300 Y236.280 E15.1450
G1 X32.700 Y236.280 E15.1566
G1 X32.700 Y218.080 E15.6863
G1 X33.100 Y218.080 E15.6980
G1 X33.100 Y236.280 E16.2276
G1 X33.500 Y236.280 E16.2393
G1 X33.500 Y218.080 E16.7689
G1 X33.900 Y218.080 E16.7806
G1 X33.900 Y236.280 E17.3102
G1 X34.300 Y236.280 E17.3219
G1 X34.300 Y218.080 E17.8515
G1 X34.700 Y218.080 E17.8632
G1 X34.700 Y236.280 E18.3929
G1 X35.100 Y236.280 E18.4045
G1 X35.100 Y218.080 E18.9342
G1 X35.500 Y218.080 E18.9458
G1 X35.500 Y236.280 E19.4755
G1 X35.900 Y236.280 E19.4871
G1 X35.900 Y218.080 E20.0168
G1 X36.300 Y218.080 E20.0284
G1 X36.300 Y236.280 E20.5581
G1 X36.700 Y236.280 E20.5697
G1 X36.700 Y218.080 E21.0994
G1 X37.100 Y218.080 E21.1110
G1 X37.100 Y236.280 E21.6407
G1 X37.500 Y236.280 E21.6523
G1 X37.500 Y218.080 E22.1820
G1 X37.900 Y218.080 E22.1937
G1 X37.900 Y236.280 E22.7233
G1 X38.300 Y236.280 E22.7350
G1 X38.300 Y218.080 E23.2646
G1 X38.700 Y218.080 E23.2763
G1 X38.700 Y236.280 E23.8059
G1 X39.100 Y236.280 E23.8176
G1 X39.100 Y218.080 E24.3473
G1 X39.500 Y218.080 E24.3589
G1 X39.500 Y236.280 E24.8886
G1 X39.900 Y236.280 E24.9002
G1 X39.900 Y218.080 E25.4299
G1 X40.300 Y218.080 E25.4415
G1 X40.300 Y236.280 E25.9712
G1 X40.700 Y236.280 E25.9828
G1 X40.700 Y218.080 E26.5125
G1 X41.100 Y218.080 E26.5241
G1 X41.100 Y236.280 E27.0538
G1 X41.500 Y236.280 E27.0654
G1 X41.500 Y218.080 E27.5951
G1 X41.900 Y218.080 E27.6067
G1 X41.900 Y236.280 E28.1364
G1 X42.300 Y236.280 E28.1481
G1 X42.300 Y218.080 E28.6777
G1 X42.700 Y218.080 E28.6894
G1 X42.700 Y236.280 E29.2190
G1 X43.100 Y236.280 E29.2307
G1 X43.100 Y218.080 E29.7603
G1 X43.500 Y218.080 E29.7720
G1 X43.500 Y236.280 E30.3016
G1 X43.900 Y236.280 E30.3133
G1 X43.900 Y218.080 E30.8430
G1 X44.300 Y218.080 E30.8546
G1 X44.300 Y236.280 E31.3843
G1 X44.700 Y236.280 E31.3959
G1 X44.700 Y218.080 E31.9256
G1 X45.100 Y218.080 E31.9372
G1 X45.100 Y236.280 E32.4669
G1 X45.500 Y236.280 E32.4785
G1 X45.500 Y218.080 E33.0082
G1 X45.900 Y218.080 E33.0198
G1 X45.900 Y236.280 E33.5495
G1 X46.300 Y236.280 E33.5611
G1 X46.300 Y218.080 E34.0908
G1 X46.700 Y218.080 E34.1024
G1 X46.700 Y236.280 E34.6321
G1 X47.100 Y236.280 E34.6438
G1 X47.100 Y218.080 E35.1734
G1 X47.500 Y218.080 E35.1851
G1 X47.500 Y236.280 E35.7147
G1 X47.900 Y236.280 E35.7264
G1 X47.900 Y218.080 E36.2560
G1 X48.300 Y218.080 E36.2677
G1 X48.300 Y236.280 E36.7974
G1 X48.700 Y236.280 E36.8090
G1 X48.700 Y218.080 E37.3387
G1 X49.100 Y218.080 E37.3503
G1 X49.100 Y236.280 E37.8800
G1 X49.500 Y236.280 E37.8916
G1 X49.500 Y218.080 E38.4213
G1 X49.900 Y218.080 E38.4329
G1 X49.900 Y236.280 E38.9626
G1 X50.300 Y236.280 E38.9742
G1 X50.300 Y218.080 E39.5039
G1 X50.700 Y218.080 E39.5155
G1 X50.700 Y236.280 E40.0452
G1 X51.100 Y236.280 E40.0568
G1 X51.100 Y218.080 E40.5865
G1 X51.500 Y218.080 E40.5982
G1 X51.500 Y236.280 E41.1278
G1 X51.900 Y236.280 E41.1395
G1 X51.900 Y218.080 E41.6691
G1 X52.300 Y218.080 E41.6808
G1 X52.300 Y236.280 E42.2104
G1 X52.700 Y236.280 E42.2221
G1 X52.700 Y218.080 E42.7517
G1 X53.100 Y218.080 E42.7634
G1 X53.100 Y236.280 E43.2931
G1 X53.500 Y236.280 E43.3047
G1 X53.500 Y218.080 E43.8344
G1 X53.808 Y218.080 E43.8433
G1 X53.900 Y218.103 E43.8461
G1 X53.900 Y236.257 E44.3744
G1 X54.300 Y236.156 E44.3864
G1 X54.300 Y218.204 E44.9089
G1 X54.700 Y218.305 E44.9209
G1 X54.700 Y236.055 E45.4375
G1 X55.100 Y235.955 E45.4495
G1 X55.100 Y218.405 E45.9602
G1 X55.500 Y218.506 E45.9722
G1 X55.500 Y235.854 E46.4771
G1 X55.900 Y235.753 E46.4891
G1 X55.900 Y218.607 E46.9881
G1 X56.300 Y218.707 E47.0001
G1 X56.300 Y235.653 E47.4932
G1 X56.700 Y235.552 E47.5052
G1 X56.700 Y218.808 E47.9925
G1 X57.100 Y218.909 E48.0045
G1 X57.100 Y235.451 E48.4859
G1 X57.500 Y235.350 E48.4980
G1 X57.500 Y219.010 E48.9735
G1 X57.900 Y219.110 E48.9855
G1 X57.900 Y235.250 E49.4552
G1 X58.300 Y235.149 E49.4672
G1 X58.300 Y219.211 E49.9310
G1 X58.700 Y219.312 E49.9431
G1 X58.700 Y235.048 E50.4010
G1 X58.967 Y234.981 E50.4090
G1 X59.100 Y234.957 E50.4130
G1 X59.100 Y219.403 E50.8656
G1 X59.500 Y219.474 E50.8775
G1 X59.500 Y234.886 E51.3260
G1 X59.900 Y234.815 E51.3378
G1 X59.900 Y219.545 E51.7822
G1 X60.300 Y219.616 E51.7940
G1 X60.300 Y234.744 E52.2343
G1 X60.700 Y234.672 E52.2461
G1 X60.700 Y219.688 E52.6822
G1 X61.100 Y219.759 E52.6940
G1 X61.100 Y234.601 E53.1260
G1 X61.500 Y234.530 E53.1378
G1 X61.500 Y219.830 E53.5656
G1 X61.900 Y219.901 E53.5775
G1 X61.900 Y234.459 E54.0011
G1 X62.300 Y234.388 E54.0129
G1 X62.300 Y219.972 E54.4325
G1 X62.700 Y220.044 E54.4443
G1 X62.700 Y234.316 E54.8597
G1 X63.100 Y234.245 E54.8715
G1 X63.100 Y220.115 E55.2827
G1 X63.500 Y220.186 E55.2945
G1 X63.500 Y234.174 E55.7016
G1 X63.900 Y234.103 E55.7135
G1 X63.900 Y220.257 E56.1164
G1 X64.267 Y220.323 E56.1272
G1 X64.300 Y220.326 E56.1282
G1 X64.300 Y234.034 E56.5271
G1 X64.700 Y233.991 E56.5388
G1 X64.700 Y220.369 E56.9353
G1 X65.100 Y220.411 E56.9470
G1 X65.100 Y233.949 E57.3410
G1 X65.500 Y233.907 E57.3527
G1 X65.500 Y220.453 E57.7442
G1 X65.900 Y220.496 E57.7559
G1 X65.900 Y233.864 E58.1450
G1 X66.300 Y233.822 E58.1567
G1 X66.300 Y220.538 E58.5433
G1 X66.700 Y220.581 E58.5550
G1 X66.700 Y233.779 E58.9391
G1 X67.100 Y233.737 E58.9508
G1 X67.100 Y220.623 E59.3324
G1 X67.500 Y220.666 E59.3442
G1 X67.500 Y233.694 E59.7233
G1 X67.900 Y233.652 E59.7350
G1 X67.900 Y220.708 E60.1117
G1 X68.300 Y220.751 E60.1234
G1 X68.300 Y233.609 E60.4977
G1 X68.700 Y233.567 E60.5094
G1 X68.700 Y220.793 E60.8811
G1 X69.100 Y220.835 E60.8928
G1 X69.100 Y233.525 E61.2621
G1 X69.500 Y233.482 E61.2738
G1 X69.500 Y220.878 E61.6406
G1 X69.620 Y220.891 E61.6442
G1 X69.900 Y220.900 E61.6523
G1 X69.900 Y233.460 E62.0178
